!!!COM: Bach, Johann Sebastian
!!!CDT: 1685/3//-1750/7/28/
!!!OTL@@DE: Herr Jesu Christ, dich zu uns wend'
!!!AGN: 4-Part Chorale
!!!SCT: BH 136
!!!SCT: BWV 332
**harm	**root	**kern	**kern	**kern	**kern
!	!	!bass	!tenor	!alto	!soprno
*	*Iorgan	*Iorgan	*Iorgan	*Iorgan	*Iorgan
*	*	*clefF4	*clefF4	*clefG2	*clefG2
*k[b-e-a-d-]	*k[b-e-a-d-]	*k[b-e-a-d-]	*k[b-e-a-d-]	*k[b-e-a-d-]	*k[b-e-a-d-]
*A-:	*A-:	*A-:	*A-:	*A-:	*A-:
*M4/4	*M4/4	*M4/4	*M4/4	*M4/4	*M4/4
*met(c)	*met(c)	*met(c)	*met(c)	*met(c)	*met(c)
*MM60	*MM60	*MM60	*MM60	*MM60	*MM60
I	4GG	4AA-	4c	4e-	4a-
=1	=1	=1	=1	=1	=1
I	4GG	4AA-	4e-	4a-	4cc
Vb	4DD	4GG	4e-	[4b-	4ee-
I	4GG	8AA-	4e-	8b-]	4cc
.	.	8C	.	4a-	.
V	4DD	4E-	4e-	.	4b-
.	.	.	.	8g	.
=2	=2	=2	=2	=2	=2
I	4GG	8A-	4e-	4a-	4cc
.	.	8G	.	.	.
viiob/V	4CC#	4F	4f	4a-	4dd
V;	4DD;	4E-;	4B-;	4g;	4ee-;
ii	4AA	8B-	4d-	4b-	4ff
.	.	8A-	.	.	.
=3	=3	=3	=3	=3	=3
V7	4DD	4G	4e-	4.b-	8ee-
.	.	.	.	.	8dd-
I	4GG	4A-	4e-	.	4cc
.	.	.	.	[8a-	.
V7b/V	8AA	8D	8f	8a-]	4b-
V7b/VI	8BB	8E	4c	8g	.
vi	8EE	8F	.	8f	8a-
Vb	8DD	8G	[8B-	8e-	8b-
=4	=4	=4	=4	=4	=4
I	4GG	4A-	8B-]	4e-	4cc
.	.	.	4A-	.	.
V	4DD	4E-	.	4e-	4b-
.	.	.	8G	.	.
I;	4GG;	4AA-;	4c;	4e-;	4a-;
V	4DD	4E-	4e-	4g	4b-
!!linebreak: 2
=5	=5	=5	=5	=5	=5
I	4GG	8AA-	4e-	4a-	4cc
.	.	8BB-	.	.	.
Ib	4GG	8C	4e-	4a-	4cc
.	.	8D	.	.	.
V	2DD	8E-	4e-	4a-	4b-
.	.	8F	.	.	.
.	.	8G	8B-	4g	4ee-
.	.	8c	8e-	.	.
=6	=6	=6	=6	=6	=6
vi7	4EE	8A-	8c	4f	4ee-
.	.	8F	8A-	.	.
V/V	4AA	8B-	4B-	4f	4dd
.	.	8BB-	.	.	.
V;	4DD;	4E-;	4B-;	4g;	4ee-;
V7/IV	4GG	8A-	4A-	4e-	4cc
.	.	8G-	.	.	.
=7	=7	=7	=7	=7	=7
IVb	4CC	8F	8A-	4f	4dd-
.	.	8Gy	8B-	.	.
I	4GG	4A-	4c	8e-	4cc
.	.	.	.	[8a-	.
V7b/V	8AA	8D	8f	8a-]	4b-
V7b/VI	8BB	8E	8c	4g	.
vi	4EE	4F	4c	.	4a-
.	.	.	.	8f	.
=8	=8	=8	=8	=8	=8
Ib	4GG	8C	4c	4e-	4a-
.	.	8D-	.	.	.
V	4DD	4E-	4B-	4e-	4g
I;	4GG;	4AA-;	4c;	4e-;	4a-;
==	==	==	==	==	==
*-	*-	*-	*-	*-	*-
!!chor2scor: -l 2 -s 0.6 -o %b.pmx
!!!YEC: Copyright 2003 by Craig Stuart Sapp
!!!license: GNU General Public License (http://www.gnu.org/copyleft/gpl.html)
!!!SMA: 371 Bach Chorales, edited by Ludwig Erk, C.F. Peters
!!!PDT: 1850, 1865
!!!ONB: Harmony and Root analysis done manually by Craig Sapp
